src/assets/icons/numbers,simple,03.svg

<svg width="48" height="48" viewBox="0 0 48 48" fill="none" xmlns="http://www.w3.org/2000/svg">
<rect opacity="0.2" x="5" y="5" width="38" height="38" rx="4" fill="black"/>
<path d="M23.9436 36.3082C29.0075 36.3082 32.6293 33.5231 32.6183 29.6701C32.6293 26.8629 30.8459 24.8594 27.5324 24.4411V24.2649C30.0533 23.8136 31.7927 22.0302 31.7817 19.4982C31.7927 15.9425 28.6772 13.1463 24.0096 13.1463C19.3861 13.1463 15.9074 15.8544 15.8413 19.7514H20.4098C20.4649 18.0341 22.0391 16.9222 23.9876 16.9222C25.9141 16.9222 27.2021 18.0891 27.1911 19.7844C27.2021 21.5568 25.6939 22.7567 23.5253 22.7567H21.4226V26.2575H23.5253C26.0792 26.2575 27.6755 27.5344 27.6645 29.3509C27.6755 31.1452 26.1343 32.3782 23.9546 32.3782C21.852 32.3782 20.2777 31.2773 20.1897 29.6261H15.39C15.467 33.5671 18.9897 36.3082 23.9436 36.3082Z" fill="black"/>
</svg>

<svg xmlns="http://www.w3.org/2000/svg" width="48" height="48" fill="none" viewBox="0 0 48 48">
  <rect width="38" height="38" x="5" y="5" fill="#000" opacity=".2" rx="4"/>
  <path fill="#000" d="M23.944 36.308c5.064 0 8.685-2.785 8.674-6.638.011-2.807-1.772-4.81-5.086-5.229v-.176c2.521-.451 4.26-2.235 4.25-4.767.01-3.556-3.105-6.352-7.772-6.352-4.624 0-8.103 2.708-8.169 6.605h4.569c.055-1.717 1.63-2.829 3.578-2.829 1.926 0 3.214 1.167 3.203 2.862.011 1.773-1.497 2.973-3.666 2.973h-2.102v3.5h2.102c2.554 0 4.15 1.277 4.14 3.094.01 1.794-1.53 3.027-3.71 3.027-2.103 0-3.677-1.1-3.765-2.752h-4.8c.077 3.941 3.6 6.682 8.554 6.682z"/>
</svg>
